X: 11723
T: El Swing Del Garrulo
R: jig
M: 6/8
K: Dmajor
|:fdA fdA|ec A2> ef/g/|a fg ef d|e AB cde|
fdA fdA|ec A2> ef/g/|a fg eg f|d z2 dfa:|
|:bgdg bd'|af dfaz|gefg fe|fd fgaz|
bgdg bd'|af dfaz|gefg fe|fd ecdz:|

